Adwaita/scalable/emblems/emblem-system-symbolic.svg

<?xml version="1.0" encoding="UTF-8"?>
<svg height="16px" viewBox="0 0 16 16" width="16px" xmlns="http://www.w3.org/2000/svg">
    <path d="m 8 0 c -0.550781 0 -1 0.449219 -1 1 v 0.238281 c 0 0.464844 -0.378906 0.902344 -0.820312 1.046875 c -0.023438 0.007813 -0.042969 0.011719 -0.0625 0.019532 c -0.445313 0.148437 -1.007813 0.015624 -1.28125 -0.359376 l -0.140626 -0.195312 c -0.15625 -0.214844 -0.390624 -0.359375 -0.652343 -0.398438 c -0.261719 -0.042968 -0.53125 0.019532 -0.742188 0.175782 c -0.449219 0.324218 -0.550781 0.949218 -0.222656 1.398437 l 0.140625 0.199219 c 0.277344 0.375 0.226562 0.953125 -0.050781 1.328125 c -0.011719 0.015625 -0.023438 0.035156 -0.035157 0.050781 c -0.273437 0.378906 -0.804687 0.601563 -1.25 0.457032 l -0.230468 -0.074219 c -0.523438 -0.171875 -1.089844 0.117187 -1.257813 0.640625 c -0.171875 0.527344 0.113281 1.089844 0.640625 1.261718 l 0.222656 0.074219 c 0.445313 0.144531 0.738282 0.636719 0.75 1.101563 v 0.070312 c 0.015626 0.464844 -0.304687 0.960938 -0.746093 1.105469 l -0.226563 0.070313 c -0.527344 0.171874 -0.8125 0.738281 -0.640625 1.261718 c 0.167969 0.523438 0.734375 0.8125 1.257813 0.640625 l 0.230468 -0.074219 c 0.445313 -0.144531 0.976563 0.078126 1.25 0.457032 c 0.011719 0.015625 0.027344 0.035156 0.039063 0.050781 c 0.277344 0.375 0.324219 0.953125 0.050781 1.328125 l -0.144531 0.203125 c -0.324219 0.445313 -0.226563 1.070313 0.222656 1.394531 c 0.445313 0.324219 1.070313 0.226563 1.394531 -0.21875 l 0.144532 -0.199218 c 0.273437 -0.378907 0.835937 -0.507813 1.277344 -0.359376 c 0.019531 0.007813 0.042968 0.011719 0.0625 0.019532 c 0.445312 0.140625 0.820312 0.578125 0.820312 1.046875 v 0.238281 c 0 0.550781 0.449219 1 1 1 s 1 -0.449219 1 -1 v -0.238281 c 0 -0.46875 0.378906 -0.90625 0.820312 -1.046875 c 0.023438 -0.007813 0.042969 -0.015625 0.066407 -0.023438 c 0.441406 -0.144531 1.003906 -0.015625 1.277343 0.363282 l 0.144532 0.199218 c 0.324218 0.445313 0.949218 0.542969 1.394531 0.21875 c 0.445313 -0.324218 0.546875 -0.949218 0.222656 -1.394531 l -0.148437 -0.203125 c -0.273438 -0.375 -0.226563 -0.953125 0.050781 -1.328125 c 0.015625 -0.015625 0.027344 -0.035156 0.039063 -0.050781 c 0.273437 -0.378906 0.804687 -0.601563 1.25 -0.457032 l 0.234374 0.078126 c 0.523438 0.167968 1.085938 -0.121094 1.257813 -0.644532 c 0.171875 -0.523437 -0.117187 -1.089844 -0.640625 -1.257812 l -0.230469 -0.074219 c -0.445312 -0.144531 -0.734375 -0.640625 -0.746093 -1.105469 c 0 -0.023437 0 -0.046875 0 -0.070312 c -0.015626 -0.464844 0.300781 -0.957032 0.746093 -1.101563 l 0.230469 -0.074219 c 0.523438 -0.171874 0.8125 -0.734374 0.640625 -1.261718 c -0.171875 -0.523438 -0.734375 -0.8125 -1.257813 -0.640625 l -0.230468 0.074219 c -0.445313 0.144531 -0.980469 -0.078126 -1.253906 -0.457032 c -0.011719 -0.015625 -0.023438 -0.035156 -0.035157 -0.050781 c -0.277343 -0.375 -0.324219 -0.953125 -0.050781 -1.328125 l 0.144531 -0.199219 c 0.324219 -0.445312 0.226563 -1.074219 -0.222656 -1.398437 c -0.214844 -0.15625 -0.480469 -0.21875 -0.742187 -0.179688 c -0.265626 0.042969 -0.5 0.1875 -0.652344 0.402344 l -0.144532 0.195312 c -0.273437 0.378907 -0.835937 0.507813 -1.28125 0.363282 c -0.019531 -0.007813 -0.039062 -0.015625 -0.0625 -0.023438 c -0.441406 -0.140625 -0.820312 -0.578125 -0.820312 -1.046875 v -0.238281 c 0 -0.550781 -0.449219 -1 -1 -1 z m 0 4 c 0.871094 0 1.675781 0.273438 2.332031 0.742188 c 0.003907 0.007812 0.011719 0.015624 0.019531 0.023437 c 0.011719 0.003906 0.019532 0.007813 0.03125 0.015625 c 0.660157 0.484375 1.160157 1.171875 1.421876 1.976562 v 0.007813 s 0.003906 0.003906 0.003906 0.007813 c 0.292968 0.851562 0.15625 1.65625 0 2.457031 c 0 0 -0.003906 0.003906 -0.003906 0.007812 v 0.003907 c -0.261719 0.800781 -0.757813 1.488281 -1.414063 1.976562 c -0.015625 0.003906 -0.027344 0.011719 -0.039063 0.019531 c -0.007812 0.003907 -0.015624 0.011719 -0.019531 0.019531 c -0.65625 0.46875 -1.460937 0.742188 -2.332031 0.742188 c -0.855469 0 -1.644531 -0.265625 -2.289062 -0.714844 c -0.019532 -0.015625 -0.042969 -0.035156 -0.0625 -0.046875 c -0.011719 -0.007812 -0.023438 -0.015625 -0.035157 -0.019531 c -0.652343 -0.484375 -1.148437 -1.160156 -1.40625 -1.945312 c -0.003906 -0.015626 -0.007812 -0.023438 -0.011719 -0.035157 c -0.003906 -0.007812 -0.007812 -0.015625 -0.011718 -0.019531 c -0.285156 -0.847656 -0.148438 -1.644531 0 -2.4375 c 0.003906 -0.007812 0.007812 -0.011719 0.011718 -0.019531 c 0.003907 -0.011719 0.007813 -0.023438 0.011719 -0.039063 c 0.261719 -0.785156 0.757813 -1.460937 1.414063 -1.945312 c 0.007812 -0.003906 0.019531 -0.007813 0.027344 -0.015625 c 0.019531 -0.011719 0.042968 -0.03125 0.058593 -0.046875 c 0.648438 -0.449219 1.4375 -0.714844 2.292969 -0.714844 z m 0 0" fill="#2e3436"/>
</svg>

<?xml version="1.0" encoding="UTF-8"?>
<svg xmlns="http://www.w3.org/2000/svg" xmlns:xlink="http://www.w3.org/1999/xlink" width="16px" height="16px" viewBox="0 0 16 16" version="1.1">
<g id="surface22781">
<path style=" stroke:none;fill-rule:nonzero;fill:rgb(18.039216%,20.392157%,21.176471%);fill-opacity:1;" d="M 8 0 C 7.449219 0 7 0.449219 7 1 L 7 1.238281 C 7 1.703125 6.621094 2.140625 6.179688 2.285156 C 6.15625 2.292969 6.136719 2.296875 6.117188 2.304688 C 5.671875 2.453125 5.109375 2.320312 4.835938 1.945312 L 4.695312 1.75 C 4.539062 1.535156 4.304688 1.390625 4.042969 1.351562 C 3.78125 1.308594 3.511719 1.371094 3.300781 1.527344 C 2.851562 1.851562 2.75 2.476562 3.078125 2.925781 L 3.21875 3.125 C 3.496094 3.5 3.445312 4.078125 3.167969 4.453125 C 3.15625 4.46875 3.144531 4.488281 3.132812 4.503906 C 2.859375 4.882812 2.328125 5.105469 1.882812 4.960938 L 1.652344 4.886719 C 1.128906 4.714844 0.5625 5.003906 0.394531 5.527344 C 0.222656 6.054688 0.507812 6.617188 1.035156 6.789062 L 1.257812 6.863281 C 1.703125 7.007812 1.996094 7.5 2.007812 7.964844 C 2.007812 7.988281 2.007812 8.011719 2.007812 8.035156 C 2.023438 8.5 1.703125 8.996094 1.261719 9.140625 L 1.035156 9.210938 C 0.507812 9.382812 0.222656 9.949219 0.394531 10.472656 C 0.5625 10.996094 1.128906 11.285156 1.652344 11.113281 L 1.882812 11.039062 C 2.328125 10.894531 2.859375 11.117188 3.132812 11.496094 C 3.144531 11.511719 3.160156 11.53125 3.171875 11.546875 C 3.449219 11.921875 3.496094 12.5 3.222656 12.875 L 3.078125 13.078125 C 2.753906 13.523438 2.851562 14.148438 3.300781 14.472656 C 3.746094 14.796875 4.371094 14.699219 4.695312 14.253906 L 4.839844 14.054688 C 5.113281 13.675781 5.675781 13.546875 6.117188 13.695312 C 6.136719 13.703125 6.160156 13.707031 6.179688 13.714844 C 6.625 13.855469 7 14.292969 7 14.761719 L 7 15 C 7 15.550781 7.449219 16 8 16 C 8.550781 16 9 15.550781 9 15 L 9 14.761719 C 9 14.292969 9.378906 13.855469 9.820312 13.714844 C 9.84375 13.707031 9.863281 13.699219 9.886719 13.691406 C 10.328125 13.546875 10.890625 13.675781 11.164062 14.054688 L 11.308594 14.253906 C 11.632812 14.699219 12.257812 14.796875 12.703125 14.472656 C 13.148438 14.148438 13.25 13.523438 12.925781 13.078125 L 12.777344 12.875 C 12.503906 12.5 12.550781 11.921875 12.828125 11.546875 C 12.84375 11.53125 12.855469 11.511719 12.867188 11.496094 C 13.140625 11.117188 13.671875 10.894531 14.117188 11.039062 L 14.351562 11.117188 C 14.875 11.285156 15.4375 10.996094 15.609375 10.472656 C 15.78125 9.949219 15.492188 9.382812 14.96875 9.214844 L 14.738281 9.140625 C 14.292969 8.996094 14.003906 8.5 13.992188 8.035156 C 13.992188 8.011719 13.992188 7.988281 13.992188 7.964844 C 13.976562 7.5 14.292969 7.007812 14.738281 6.863281 L 14.96875 6.789062 C 15.492188 6.617188 15.78125 6.054688 15.609375 5.527344 C 15.4375 5.003906 14.875 4.714844 14.351562 4.886719 L 14.121094 4.960938 C 13.675781 5.105469 13.140625 4.882812 12.867188 4.503906 C 12.855469 4.488281 12.84375 4.46875 12.832031 4.453125 C 12.554688 4.078125 12.507812 3.5 12.78125 3.125 L 12.925781 2.925781 C 13.25 2.480469 13.152344 1.851562 12.703125 1.527344 C 12.488281 1.371094 12.222656 1.308594 11.960938 1.347656 C 11.695312 1.390625 11.460938 1.535156 11.308594 1.75 L 11.164062 1.945312 C 10.890625 2.324219 10.328125 2.453125 9.882812 2.308594 C 9.863281 2.300781 9.84375 2.292969 9.820312 2.285156 C 9.378906 2.144531 9 1.707031 9 1.238281 L 9 1 C 9 0.449219 8.550781 0 8 0 Z M 8 4 C 8.871094 4 9.675781 4.273438 10.332031 4.742188 C 10.335938 4.75 10.34375 4.757812 10.351562 4.765625 C 10.363281 4.769531 10.371094 4.773438 10.382812 4.78125 C 11.042969 5.265625 11.542969 5.953125 11.804688 6.757812 C 11.804688 6.757812 11.804688 6.761719 11.804688 6.765625 C 11.804688 6.765625 11.808594 6.769531 11.808594 6.773438 C 12.101562 7.625 11.964844 8.429688 11.808594 9.230469 C 11.808594 9.230469 11.804688 9.234375 11.804688 9.238281 C 11.804688 9.238281 11.804688 9.242188 11.804688 9.242188 C 11.542969 10.042969 11.046875 10.730469 10.390625 11.21875 C 10.375 11.222656 10.363281 11.230469 10.351562 11.238281 C 10.34375 11.242188 10.335938 11.25 10.332031 11.257812 C 9.675781 11.726562 8.871094 12 8 12 C 7.144531 12 6.355469 11.734375 5.710938 11.285156 C 5.691406 11.269531 5.667969 11.25 5.648438 11.238281 C 5.636719 11.230469 5.625 11.222656 5.613281 11.21875 C 4.960938 10.734375 4.464844 10.058594 4.207031 9.273438 C 4.203125 9.257812 4.199219 9.25 4.195312 9.238281 C 4.191406 9.230469 4.1875 9.222656 4.183594 9.21875 C 3.898438 8.371094 4.035156 7.574219 4.183594 6.78125 C 4.1875 6.773438 4.191406 6.769531 4.195312 6.761719 C 4.199219 6.75 4.203125 6.738281 4.207031 6.722656 C 4.46875 5.9375 4.964844 5.261719 5.621094 4.777344 C 5.628906 4.773438 5.640625 4.769531 5.648438 4.761719 C 5.667969 4.75 5.691406 4.730469 5.707031 4.714844 C 6.355469 4.265625 7.144531 4 8 4 Z M 8 4 "/>
</g>
</svg>
